FINK
CUT[WIE SIE SO SANFT RUHN]
REG[Europa, Mitteleuropa, Deutschland]
KEY[F1061  16  C 3/4]
MEL[  1__2__1__  1_-7_-7__0__
    2__1__-7__  -7_1_1__0__
    5__4__3__  3__2__1__
    2__4_.23_.1  1#__2__0__
    2__2__3__  3_.44__0__
    4__3__2__  2#_3_3__0__
    -6__6__5__  5__4__3_
    1_  -66543__2__  1___0__ //] >>
FCT[Trauer -, Bregraebnis -, Trost - Lied]
